src/pos-icons/bell-cancel.svg

<svg height="24" viewBox="0 0 24 24" width="24" xmlns="http://www.w3.org/2000/svg"><path d="m17.5 13a4.5 4.5 0 0 0 -4.5 4.5 4.5 4.5 0 0 0 4.5 4.5 4.5 4.5 0 0 0 4.5-4.5 4.5 4.5 0 0 0 -4.5-4.5m0 1.5a3 3 0 0 1 3 3 3 3 0 0 1 -.42 1.5l-4.08-4.08a3 3 0 0 1 1.5-.42m-2.58 1.5 4.08 4.08a3 3 0 0 1 -1.5.42 3 3 0 0 1 -3-3 3 3 0 0 1 .42-1.5m-2.92-14c-1.1 0-2 .9-2 2v.29c-2.88.85-5 3.53-5 6.71v6l-2 2v1h8.5a6.5 6.5 0 0 1 -.5-2.5 6.5 6.5 0 0 1 6.5-6.5 6.5 6.5 0 0 1 1.5.18v-.18c0-3.18-2.12-5.86-5-6.71 0-.1 0-.19 0-.29 0-1.1-.89-2-2-2m-2 19c0 1.11.9 2 2 2 .5 0 .97-.19 1.33-.5a6.5 6.5 0 0 1 -1.3-1.5z"/></svg>

<?xml version="1.0" encoding="UTF-8"?><!DOCTYPE svg PUBLIC "-//W3C//DTD SVG 1.1//EN" "http://www.w3.org/Graphics/SVG/1.1/DTD/svg11.dtd"><svg xmlns="http://www.w3.org/2000/svg" xmlns:xlink="http://www.w3.org/1999/xlink" version="1.1" id="mdi-bell-cancel" width="24" height="24" viewBox="0 0 24 24"><path d="M17.5 13A4.5 4.5 0 0 0 13 17.5A4.5 4.5 0 0 0 17.5 22A4.5 4.5 0 0 0 22 17.5A4.5 4.5 0 0 0 17.5 13M17.5 14.5A3 3 0 0 1 20.5 17.5A3 3 0 0 1 20.08 19L16 14.92A3 3 0 0 1 17.5 14.5M14.92 16L19 20.08A3 3 0 0 1 17.5 20.5A3 3 0 0 1 14.5 17.5A3 3 0 0 1 14.92 16M12 2C10.9 2 10 2.9 10 4C10 4.1 10 4.19 10 4.29C7.12 5.14 5 7.82 5 11V17L3 19V20H11.5A6.5 6.5 0 0 1 11 17.5A6.5 6.5 0 0 1 17.5 11A6.5 6.5 0 0 1 19 11.18V11C19 7.82 16.88 5.14 14 4.29C14 4.19 14 4.1 14 4C14 2.9 13.11 2 12 2M10 21C10 22.11 10.9 23 12 23C12.5 23 12.97 22.81 13.33 22.5A6.5 6.5 0 0 1 12.03 21Z" /></svg>
